storage/app/icons/phosphoricons/regular/gender-intersex.svg

<svg xmlns="http://www.w3.org/2000/svg" fill="currentColor" viewBox="0 0 256 256"><path d="M208 24h-40a8 8 0 0 0 0 16h20.69l-25.15 25.15A64 64 0 1 0 112 175.48V192H88a8 8 0 0 0 0 16h24v24a8 8 0 0 0 16 0v-24h24a8 8 0 0 0 0-16h-24v-16.52a63.92 63.92 0 0 0 45.84-98L200 51.31V72a8 8 0 0 0 16 0V32a8 8 0 0 0-8-8m-88 136a48 48 0 1 1 48-48 48.05 48.05 0 0 1-48 48"/></svg>

<svg xmlns="http://www.w3.org/2000/svg" viewBox="0 0 256 256" fill="currentColor"><path d="M208,24H168a8,8,0,0,0,0,16h20.69L163.54,65.15A64,64,0,1,0,112,175.48V192H88a8,8,0,0,0,0,16h24v24a8,8,0,0,0,16,0V208h24a8,8,0,0,0,0-16H128V175.48a63.92,63.92,0,0,0,45.84-98L200,51.31V72a8,8,0,0,0,16,0V32A8,8,0,0,0,208,24ZM120,160a48,48,0,1,1,48-48A48.05,48.05,0,0,1,120,160Z"/></svg>
